X:1340
T:the Marlborough
A:Wyresdale, Lancashire
B:E and J Winder, 1835-41
L:1/8
M:6/8
O:England
Z:Richard Robinson 
%%TranscriptionNotes:This is what's written
%%TUNEURL: http://www.leeds.ac.uk/music/Info/RRTuneBk/gettune/00001208.html
%%ID:00001208
K:G
G/A/ | \
B2B B>AB | c3 BdB | A2A AGA | B2G G2A | \
B2B BAB  | c3 BdB | A2A AGA | G2 ::
(B/c/) | \
d2B e2e | d3 Bc |  B2G g3 | ee2 d2 ::
